X: 12
T: No_10_Bear_Dance_Song_(f).krn
N: Derived from No_10_Bear_Dance_Song_(f).krn
%%abc-version 2.0
%%abcx-abcm2ps-target-version 5.9.1 (29 Sep 2008)
%%abc-creator hum2abc beta
%%abcx-conversion-date 2019/03/15 08:36:49
%%humdrum-veritas 1672543312
%%humdrum-veritas-data 4119159277
%%linebreak <none>
%%barnumbers 0
L: 1/16
M: 2/4
K: Eb clef=bass
[K:clef=bass][M:2/4]B,4B,3/F,/F,2 | 
B,4B,4 | 
C4C3G, | 
DCB,B, B,B,3 | 
B,4B,2F,F, | 
B,A,F,E, E,E,3 | 
C,C,C,2 C,C,C,2 | 
C,C,C,2 C,C,C,2 ||  
[M:3/4]E,C,C,2 E,C,C,2 E,E,E,E, ||  
[M:2/4]C,C,C,2 C,C,C,2 ||  
[M:3/4]E,C,C,2 E,C,C,2 E,C,C,C, ||  
[M:2/4]C,C,C,2 C,C,C,2 | 
C,C,C,2 C,C,C,2 |]  



